static/assets/images/networks/core-mono-1.svg

<svg width="224" height="256" viewBox="0 0 224 256" fill="none" xmlns="http://www.w3.org/2000/svg">
<path fill-rule="evenodd" clip-rule="evenodd" d="M111.965 26.5079L24.122 77.2705V178.726L111.965 229.419L199.948 178.657V77.2705L111.965 26.5079ZM115.73 0.987526C114.606 0.340585 113.332 0 112.035 0C110.738 0 109.463 0.340585 108.34 0.987526L3.7647 61.2768C2.62624 61.9161 1.67803 62.8449 1.0167 63.9687C0.355368 65.0926 0.00455029 66.3712 0 67.6743V188.322C0 190.895 1.39434 193.329 3.69499 194.65L108.27 255.009C110.571 256.33 113.429 256.33 115.73 255.009L220.305 194.65C222.606 193.329 224 190.895 224 188.322V67.6743C224 65.0318 222.606 62.598 220.305 61.2768L115.73 0.987526Z" fill="black"/>
<path d="M111.965 63.2934L55.9129 95.6285V160.299L111.686 192.495C111.895 192.634 112.035 192.842 112.035 193.12V204.247C112.035 204.376 111.999 204.502 111.931 204.612C111.863 204.722 111.765 204.811 111.649 204.868C111.534 204.926 111.404 204.951 111.275 204.939C111.146 204.927 111.023 204.88 110.919 204.803L47.6166 168.365C46.7716 167.878 46.0694 167.179 45.58 166.337C45.0907 165.495 44.8313 164.54 44.8279 163.567V92.4297C44.8313 91.4565 45.0907 90.5013 45.58 89.6593C46.0694 88.8174 46.7716 88.1182 47.6166 87.6316L109.176 52.2369C110.024 51.7486 110.986 51.4916 111.965 51.4916C112.944 51.4916 113.906 51.7486 114.754 52.2369L178.266 88.6747C178.405 88.7204 178.527 88.8089 178.613 88.9275C178.699 89.0462 178.745 89.1889 178.745 89.3353C178.745 89.4817 178.699 89.6245 178.613 89.7431C178.527 89.8617 178.405 89.9502 178.266 89.9959C174.571 92.2211 172.619 93.1947 168.436 95.5589C168.33 95.62 168.21 95.6521 168.087 95.6521C167.965 95.6521 167.845 95.62 167.739 95.5589L111.965 63.3629V63.2934Z" fill="black"/>
<path d="M121.237 129.354C121.237 129.076 121.377 128.798 121.656 128.659L177.429 99.0358C177.542 98.9459 177.68 98.8932 177.824 98.8849C177.968 98.8766 178.111 98.9131 178.234 98.9894C178.356 99.0657 178.452 99.1781 178.508 99.311C178.563 99.4438 178.576 99.5907 178.545 99.7312V171.842C178.545 172.12 178.405 172.329 178.126 172.537L122.353 204.803C122.245 204.885 122.115 204.934 121.979 204.943C121.843 204.952 121.708 204.922 121.589 204.855C121.47 204.789 121.374 204.689 121.312 204.569C121.249 204.448 121.223 204.312 121.237 204.177V129.354Z" fill="black"/>
</svg>

<svg xmlns="http://www.w3.org/2000/svg" fill="none" viewBox="0 0 224 256"><path fill="#000" fill-rule="evenodd" d="M111.965 26.508 24.122 77.27v101.455l87.843 50.693 87.983-50.762V77.27zM115.73.988a7.41 7.41 0 0 0-7.39 0L3.765 61.277a7.4 7.4 0 0 0-2.748 2.692A7.36 7.36 0 0 0 0 67.674v120.648c0 2.573 1.394 5.007 3.695 6.328l104.575 60.359a7.52 7.52 0 0 0 7.46 0l104.575-60.359c2.301-1.321 3.695-3.755 3.695-6.328V67.674a7.35 7.35 0 0 0-3.695-6.397z" clip-rule="evenodd"/><path fill="#000" d="M111.965 63.293 55.913 95.63v64.67l55.773 32.196a.73.73 0 0 1 .349.625v11.127a.693.693 0 0 1-.76.692.7.7 0 0 1-.356-.136l-63.302-36.438a5.6 5.6 0 0 1-2.037-2.028 5.55 5.55 0 0 1-.752-2.77V92.43a5.55 5.55 0 0 1 2.789-4.798l61.559-35.395a5.59 5.59 0 0 1 5.578 0l63.512 36.438a.7.7 0 0 1 .479.66.695.695 0 0 1-.479.66c-3.695 2.226-5.647 3.2-9.83 5.564a.7.7 0 0 1-.697 0l-55.774-32.196z"/><path fill="#000" d="M121.237 129.354c0-.278.14-.556.419-.695l55.773-29.623a.7.7 0 0 1 1.116.695v72.111c0 .278-.14.487-.419.695l-55.773 32.266a.7.7 0 0 1-.764.052.69.69 0 0 1-.352-.678z"/></svg>
